svg/icon-success-green.svg

<svg viewBox="0 0 32 32" xmlns="http://www.w3.org/2000/svg"><path d="M29.8333705,7.9629004 C28.4036335,5.51343426 26.4641912,3.57399203 24.0147888,2.14431873 C21.5646215,0.714645418 18.8900717,0 15.9890996,0 C13.0883187,0 10.413004,0.714645418 7.96341036,2.14431873 C5.51368924,3.5738008 3.57431076,5.51324303 2.14457371,7.9629004 C0.714645418,10.412749 0,13.0880637 0,15.9885259 C0,18.8893068 0.714900398,21.5641116 2.14431873,24.0142151 C3.57405578,26.4634263 5.51349801,28.4031235 7.96315538,29.8327968 C10.413004,31.2624064 13.0880637,31.9771155 15.9887809,31.9771155 C18.8895618,31.9771155 21.5648765,31.2624064 24.0144701,29.8327968 C26.4639363,28.4033147 28.4033785,26.4636175 29.8330518,24.0142151 C31.2624064,21.5643028 31.9771155,18.8890518 31.9771155,15.9885259 C31.9771793,13.0878088 31.2624701,10.4123665 29.8333705,7.9629004 Z M26.3560159,13.5528287 L15.0517928,24.8571793 C14.7880159,25.1209562 14.4689721,25.2529721 14.0940876,25.2529721 C13.7332271,25.2529721 13.4210677,25.1209562 13.1572908,24.8571793 L5.62071713,17.3211155 C5.37115538,17.0709801 5.24615139,16.7593307 5.24615139,16.3843825 C5.24615139,15.9957291 5.37083665,15.6763665 5.62071713,15.4264223 L7.51521912,13.5528924 C7.779251,13.289243 8.09115538,13.1573546 8.45220717,13.1573546 C8.81325896,13.1573546 9.12554582,13.289243 9.38925896,13.5528924 L14.0943426,18.2579761 L22.5883665,9.78473307 C22.8520159,9.52095618 23.1643028,9.38906773 23.5250996,9.38906773 C23.8855139,9.38906773 24.1983745,9.52095618 24.4618327,9.78473307 L26.3563347,11.6585179 C26.6065339,11.9082072 26.7311554,12.2273147 26.7311554,12.6159044 C26.7312191,12.9907251 26.6064701,13.303012 26.3560159,13.5528287 Z" fill="#05ce7c" fill-rule="nonzero"/></svg>

<svg viewBox="0 0 32 32" xmlns="http://www.w3.org/2000/svg"><path d="M29.833 7.963a15.921 15.921 0 00-5.818-5.819C21.565.714 18.89 0 15.989 0c-2.9 0-5.576.715-8.026 2.144a15.917 15.917 0 00-5.818 5.819C.715 10.413 0 13.088 0 15.989c0 2.9.715 5.575 2.144 8.025a15.922 15.922 0 005.82 5.819c2.449 1.43 5.124 2.144 8.025 2.144 2.9 0 5.576-.715 8.025-2.144a15.92 15.92 0 005.82-5.819c1.428-2.45 2.143-5.125 2.143-8.025 0-2.901-.715-5.577-2.144-8.026zm-3.477 5.59L15.052 24.857a1.304 1.304 0 01-.958.396 1.28 1.28 0 01-.937-.396l-7.536-7.536a1.272 1.272 0 01-.375-.937c0-.388.125-.708.375-.958l1.894-1.873c.264-.264.576-.396.937-.396.361 0 .674.132.937.396l4.705 4.705 8.494-8.473a1.28 1.28 0 01.937-.396c.36 0 .673.132.937.396l1.894 1.874c.25.25.375.568.375.957 0 .375-.125.687-.375.937z" fill="#05ce7c" fill-rule="nonzero"/></svg>
